X:1
T:Seeking the Lost (Ogden)
T:William Augustine Ogden, 1886
T:Seeking the Lost (Ogden)
T:Public Domain
T:Public Domain
T:Public Domain
C:William Augustine Ogden, 1886
Z:Public Domain
%%score ( 1 2 ) ( 3 4 )
L:1/8
M:9/8
K:Bb
V:1 treble 
V:2 treble 
V:3 bass 
V:4 bass 
V:1
 [DF][^C=E][DF] | [DB]3 [DB]3 [Fd][Fc][FB] | [EG]3 [EG]3 [GB][FA][EG] | [DF]3 [DF]3 [FB][Fc][Fd] | %4
w: 1.~Seek- ing the|lost, yes, kind- ly en-|treat- ing Wand- er- ers|on the mount- ain a-|
w: 2.~Seek- ing the|lost and point- ing to|Je- sus Souls that are|weak and hearts that are|
w: 3.~Thus would I|go on mis- sions of|mer- cy, Fol- low- ing|Christ from day un- to|
 [Fc]6 [Fc][F=B][Fc] | [Fe]3 [Fe]3 [Fd][=E^c][Fd] | [Ff]3 [Fd]3 [GB][FA][EG] | %7
w: stray; “Come un- to|Me,” His mes- sage re-|peat- ing, Words of the|
w: sore, Lead- ing them|forth in ways of sal-|va- tion, Show- ing the|
w: day, Cheer- ing the|faint and rais- ing the|fall- en, Point- ing the|
 [DF]3 [Fd]3 [Ec][DB][Ec] | [DB]6 ||[M:12/8]"^Refrain" z3 | z3 [EG][EG][EG] [EG]2 z z3 | %11
w: Mas- ter speak- ing to-|day.||Go- ing a- far|
w: path to life ev- er-|more.|||
w: lost to Je- sus, the|Way.|||
 z2 [DF] [DF]2 [DF] [DF]2 [DF] z3 | z3 [EF][EF][EF] [EF]2 [EF] (CB,)[A,F] | %13
w: up- on the mount- ain,|Bring- ing the wand- ’rer back * a-|
w: ||
w: ||
 [B,F]3 [B,F]2 [B,F] [B,F]3 z3 | z3 [EG][EG][EG] [EG]2 z z3 | z2 [DF] [DF]2 [DF] [DF]2 [DF] z3 | %16
w: back a- gain In-|to the fold of|my Re- deem- er, Je-|
w: |||
w: |||
 z3 [EF][EF][EF] [EF]2 [EF] (CB,)[A,F] | ([B,D]2 [B,D] [B,E]2 [B,E] [B,D]3) |] %18
w: sus, the Lamb for sin- ners * slain.||
w: ||
w: ||
V:2
 x3 | x9 | x9 | x9 | x9 | x9 | x9 | x9 | x6 ||[M:12/8] x3 | x12 | x12 | x9 F2 x | x12 | x12 | x12 | %16
w: ||||||||||||gain,||||
 x9 F2 x | x9 |] %18
w: ||
V:3
 [B,,B,][B,,B,][B,,B,] | [B,,F,]3 [B,,F,]3 [B,,B,][C,A,][D,B,] | %2
w: ~ ~ ~|~ ~ ~ ~ ~|
 [E,B,]3 [E,B,]3 [E,B,][E,B,][E,B,] | [B,,B,]3 [B,,B,]3 [D,B,][C,A,][B,,B,] | %4
w: ~ ~ ~ ~ ~|~ ~ ~ ~ ~|
 [F,A,]6 [F,A,][F,^G,][F,A,] | [F,C]3 [F,C]3 [B,,B,][B,,B,][B,,B,] | %6
w: ~ ~ ~ ~|~ ~ ~ ~ ~|
 [B,,D]3 [B,,B,]3 [E,B,][E,B,][E,B,] | [F,B,]3 F,3 F,F,F, | [B,,F,]6 ||[M:12/8] B,,C,D, | %10
w: ~ ~ ~ ~ ~|~ ~ ~ ~ ~|far|up- on the|
 (z3 B,B,B, [E,B,]2) E, (E,F,)G, | z2 B, (B,2 B, [B,,B,]2 B,) D,C,B,, | %12
w: * * * * mount- ain, * Bring-|* the * * * wand- ’rer back|
 (z3 A,A,A, F,G,)[F,A,] (E,D,)[C,F,] | (F,3 F,2 F, [D,F,]3) B,,C,D, | %14
w: * * * * * gain, * * In-|fold * * * * of my|
 (z3 B,B,B, [E,B,]2) E, (E,F,)G, | z2 B, (B,2 B, [B,,B,]2 B,) D,C,B,, | %16
w: * * * * deem- er, * Je-|* the * * * Lamb, for sin-|
 (z3 A,A,A, F,G,)[F,A,] (E,D,)[C,F,] | (F,2 F, G,2 G,) [B,,F,]3 |] %18
w: * * * * * slain. * * *||
V:4
 x3 | x9 | x9 | x9 | x9 | x9 | x9 | x3 F,3 F,F,F, | x6 ||[M:12/8] x3 | E,6- x6 | (B,3 B,,3-) x6 | %12
w: |||||||~ Go- ing a-|||ing|a- *|
 (F,6 A,2) F,2 x2 | D,6 x6 | E,6- x6 | (B,3 B,,3-) x6 | (F,6 A,2) F,2 x2 | B,,6- x3 |] %18
w: to * the|Re-|sus|ners *|||

